sanatorium/img/svg/icon-vk.svg

<svg width="30" height="30" viewBox="0 0 30 30" fill="none" xmlns="http://www.w3.org/2000/svg">
<path d="M28.7567 20.2638C27.8635 19.1925 26.8124 18.2781 25.8178 17.3072C24.9206 16.432 24.864 15.9243 25.5853 14.9142C26.3725 13.8118 27.219 12.7517 28.0134 11.6542C28.7548 10.6286 29.5128 9.60573 29.903 8.3777C30.1504 7.59643 29.9316 7.25133 29.1304 7.11454C28.9924 7.0906 28.8497 7.08936 28.7091 7.08936L23.9559 7.08376C23.3705 7.07506 23.0468 7.3303 22.8398 7.84918C22.5603 8.55056 22.2721 9.25131 21.9391 9.92813C21.1836 11.4627 20.3399 12.946 19.1569 14.202C18.8961 14.479 18.6076 14.8291 18.1717 14.6848C17.6264 14.4858 17.4657 13.5874 17.4747 13.2836L17.47 7.79726C17.3643 7.0135 17.1905 6.66406 16.4124 6.51172L11.4747 6.51265C10.8156 6.51265 10.4852 6.76727 10.1332 7.17952C9.93022 7.41766 9.86898 7.57218 10.2862 7.65114C11.1057 7.80659 11.5674 8.33698 11.6899 9.15867C11.8864 10.4716 11.8727 11.7898 11.7595 13.108C11.7263 13.4928 11.66 13.8768 11.5074 14.2362C11.2686 14.8011 10.8831 14.9161 10.3767 14.5685C9.9181 14.2539 9.59601 13.81 9.28077 13.3641C8.09657 11.6909 7.15177 9.88647 6.38137 7.99033C6.15877 7.44253 5.77482 7.1105 5.19438 7.10148C3.76831 7.07879 2.34193 7.07506 0.915863 7.10273C0.0577962 7.11889 -0.198069 7.53549 0.151375 8.31335C1.7046 11.7683 3.43348 15.1272 5.69026 18.187C6.84896 19.7573 8.17927 21.1436 9.89789 22.126C11.8456 23.2397 13.9423 23.5748 16.1506 23.4716C17.1846 23.4231 17.4952 23.1542 17.5431 22.1236C17.5754 21.4185 17.6553 20.7174 18.0032 20.0838C18.3446 19.462 18.8616 19.3435 19.4576 19.7303C19.7557 19.924 20.0069 20.1705 20.2441 20.4304C20.8261 21.0671 21.3873 21.7231 21.9913 22.3384C22.749 23.1094 23.6465 23.5649 24.7751 23.4719L29.1438 23.4728C29.8476 23.4268 30.2126 22.5638 29.8085 21.7782C29.5246 21.2279 29.1522 20.7379 28.7567 20.2638Z" fill="#D9576B"/>
</svg>

<svg width="30" height="30" fill="none" xmlns="http://www.w3.org/2000/svg"><path d="M28.757 20.264c-.894-1.072-1.945-1.986-2.94-2.957-.896-.875-.953-1.383-.232-2.393.787-1.102 1.634-2.162 2.428-3.26.742-1.025 1.5-2.048 1.89-3.276.247-.782.029-1.127-.773-1.263a2.473 2.473 0 00-.42-.026l-4.754-.005c-.585-.009-.91.246-1.116.765-.28.702-.568 1.402-.9 2.08-.756 1.534-1.6 3.017-2.783 4.273-.26.277-.55.627-.985.483-.546-.2-.706-1.098-.697-1.401l-.005-5.487c-.106-.784-.28-1.133-1.058-1.285h-4.937c-.66 0-.99.255-1.342.668-.203.238-.264.392.153.471.82.156 1.281.686 1.404 1.508.196 1.313.183 2.63.07 3.949-.034.385-.1.769-.253 1.128-.238.565-.624.68-1.13.332-.459-.314-.781-.758-1.096-1.204-1.184-1.673-2.13-3.478-2.9-5.374-.222-.547-.606-.88-1.187-.889a121.175 121.175 0 00-4.278.002c-.858.016-1.114.432-.765 1.21 1.554 3.455 3.282 6.814 5.54 9.874 1.158 1.57 2.488 2.957 4.207 3.939 1.948 1.114 4.044 1.449 6.253 1.346 1.034-.049 1.344-.318 1.392-1.348.032-.705.112-1.407.46-2.04.342-.622.859-.74 1.455-.354.298.194.549.44.786.7.582.637 1.143 1.293 1.747 1.908.758.771 1.655 1.227 2.784 1.134h4.369c.704-.045 1.069-.908.665-1.694-.284-.55-.657-1.04-1.052-1.514z" fill="#D9576B"/></svg>
